svgs/solid/calendar-arrow-up.svg

<svg xmlns="http://www.w3.org/2000/svg" viewBox="0 0 448 512"><!-- Font Awesome Pro 6.0.0-alpha2 by @fontawesome - https://fontawesome.com License - https://fontawesome.com/license (Commercial License) --><path d="M448 112V160H0V112C0 85.49 21.49 64 48 64H96V32C96 14.4 110.4 0 128 0H128C145.6 0 160 14.4 160 32V64H288V32C288 14.4 302.4 0 320 0H320C337.6 0 352 14.4 352 32V64H400C426.51 64 448 85.49 448 112ZM0 192H448V464C448 490.5 426.5 512 400 512H48C21.5 512 0 490.5 0 464V192ZM127.031 360.969C136.406 370.344 151.594 370.344 160.969 360.969L200 321.938V424C200 437.25 210.75 448 224 448S248 437.25 248 424V321.938L287.031 360.969C291.719 365.656 297.844 368 304 368S316.281 365.656 320.969 360.969C330.344 351.594 330.344 336.406 320.969 327.031L240.969 247.031C231.594 237.656 216.406 237.656 207.031 247.031L127.031 327.031C117.656 336.406 117.656 351.594 127.031 360.969Z"/></svg>

<svg xmlns="http://www.w3.org/2000/svg" viewBox="0 0 448 512"><!--! Font Awesome Pro 6.0.0-alpha3 by @fontawesome - https://fontawesome.com License - https://fontawesome.com/license (Commercial License) --><path d="M448 112L448 160H0l.0002-48c0-26.51 21.49-48 48-48H96V31.1C96 14.4 110.4 0 128 0s32 14.4 32 31.1V64h128V31.1C288 14.4 302.4 0 320 0s32 14.4 32 31.1V64h48C426.5 64 448 85.49 448 112zM0 192h448l.0002 272c0 26.5-21.5 48-48 48h-352c-26.5 0-48-21.5-48-48L0 192zM127 360.1c9.375 9.375 24.56 9.375 33.94 0L200 321.9V424c0 13.25 10.75 24 24 24S248 437.3 248 424v-102.1l39.03 39.03C291.7 365.7 297.8 368 304 368s12.28-2.344 16.97-7.031c9.375-9.375 9.375-24.56 0-33.94l-80-80c-9.375-9.375-24.56-9.375-33.94 0l-80 80C117.7 336.4 117.7 351.6 127 360.1z"/></svg>
